X:1
T:Gavotte ton doubl
C:traditionnel (appris de Pevar Den), fichier abc : Bernard Loffet
L:1/8
Q:466
K:C
M:9/8
 [c2C,,2]B [c2C,2]d [e2C,2]f | [d3D,,3] [cD,]BA [c2D,2]B | \
M:6/8
 [G3G,,3] [G3G,3] | \
M:9/8
 [c2C,,2]B [c2C,2]d [e2C,2]f | [d2D,,2]d [c2D,2]A [c2D,2]B | \
M:6/8
 [G3G,,3] [G3G,3] | \
M:9/8
|: [c2C,,2]B [c2C,2]d [e2C,2]f | [d3D,,3] [cD,]de [f2D,2]g | \
M:6/8
 [e2G,,2]f [d3G,3] | \
M:9/8
 [c2A,,2]B [c2A,2]d [e2A,2]f | [d2D,,2]d [c2D,2]A [c2D,2]B | \
M:6/8
 [G3G,,3] [G3G,3] :| \
W:Created with TablEdit http://www.tabledit.com/ by Bernard Loffet
